X:18
T:Eight Below Zero
R:reel
C: 1977, 2010 L.E. McCullough
M:4/4
L:1/8
K:Dmix
e|:~f3e dcAG|E~G3 A~G3|c~e3 g~e3|d~c3 d3e|
~f3e dcAG|EGAc A~G3|c~e3 gage|d~c3 d3e:|
|:f~d3 fdgd|fedB ~c3d|e~g3 edcA|G~E3 D3e|
~f3e fd (3gfe|fedB ~c3d|1 e~g3 a~g3|e~c3 d3e:|2 e~g3 a~g3|eage d3e|]
  

